libs/icons/src/svg/unmapped.svg

<svg width="16" height="16" viewBox="0 0 16 16" fill="none" xmlns="http://www.w3.org/2000/svg">
<g clip-path="url(#clip0_3_3340)">
<path fill-rule="evenodd" clip-rule="evenodd" d="M16 1.33335C16 1.12806 15.9054 0.93422 15.7436 0.807882C15.5818 0.681544 15.3708 0.6368 15.1716 0.68659L10.0266 1.97284L6.21082 0.700897C6.09054 0.660802 5.96131 0.65584 5.83831 0.68659L0.504976 2.01992C0.208198 2.09412 0 2.36077 0 2.66669V14.6667C0 14.872 0.094581 15.0658 0.256392 15.1922C0.418203 15.3185 0.629196 15.3632 0.828357 15.3134L6.16169 13.9801C6.51889 13.8908 6.73606 13.5289 6.64676 13.1717C6.55746 12.8145 6.19551 12.5973 5.83831 12.6866L1.33333 13.8128V3.1872L5.97335 2.0272L9.78918 3.29914C9.90946 3.33924 10.0387 3.3442 10.1617 3.31345L14.6667 2.1872V7.33335C14.6667 7.70154 14.9651 8.00002 15.3333 8.00002C15.7015 8.00002 16 7.70154 16 7.33335V1.33335ZM13.1381 8.19527C12.8777 7.93492 12.4556 7.93492 12.1953 8.19527L8.19526 12.1953C8.07024 12.3203 8 12.4899 8 12.6667V14.6667C8 15.0349 8.29848 15.3333 8.66667 15.3333H10.6667C10.8435 15.3333 11.013 15.2631 11.1381 15.1381L15.1381 11.1381C15.3984 10.8777 15.3984 10.4556 15.1381 10.1953L13.1381 8.19527ZM9.33333 14V12.9428L12.6667 9.60948L13.7239 10.6667L10.3905 14H9.33333Z" fill="#202327"/>
</g>
<defs>
<clipPath id="clip0_3_3340">
<rect width="16" height="16" fill="white"/>
</clipPath>
</defs>
</svg>

<svg xmlns="http://www.w3.org/2000/svg" viewBox="0 0 16 16" class="sageicon"><path fill-rule="evenodd" d="M16 1.333a.667.667 0 0 0-.828-.646l-5.145 1.286L6.21.7a.667.667 0 0 0-.373-.014L.505 2.02A.667.667 0 0 0 0 2.667v12a.667.667 0 0 0 .828.646l5.334-1.333a.667.667 0 1 0-.324-1.293l-4.505 1.126V3.187l4.64-1.16L9.79 3.3c.12.04.25.045.373.014l4.505-1.126v5.146a.667.667 0 1 0 1.333 0v-6Zm-2.862 6.862a.667.667 0 0 0-.943 0l-4 4a.667.667 0 0 0-.195.472v2c0 .368.298.666.667.666h2c.177 0 .346-.07.471-.195l4-4a.667.667 0 0 0 0-.943l-2-2ZM9.333 14v-1.057l3.334-3.334 1.057 1.058L10.39 14H9.333Z"/></svg>
